packages/bezier-icons/icons/gif.svg

<svg width="24" height="24" viewBox="0 0 24 24" fill="none" xmlns="http://www.w3.org/2000/svg">
<path fill-rule="evenodd" clip-rule="evenodd" d="M20.0002 8.50012C20.0002 8.77612 19.7762 9.00012 19.5002 9.00012H16.0002V11.0001H18.5002C18.7762 11.0001 19.0002 11.2241 19.0002 11.5001V12.5001C19.0002 12.7761 18.7762 13.0001 18.5002 13.0001H16.0002V16.5001C16.0002 16.7761 15.7762 17.0001 15.5002 17.0001H14.5002C14.2242 17.0001 14.0002 16.7761 14.0002 16.5001V13.0001V11.0001V9.00012V7.50012C14.0002 7.22412 14.2242 7.00012 14.5002 7.00012H16.0002H19.5002C19.7762 7.00012 20.0002 7.22412 20.0002 7.50012V8.50012ZM13.0002 16.5001C13.0002 16.7761 12.7762 17.0001 12.5002 17.0001H11.5002C11.2242 17.0001 11.0002 16.7761 11.0002 16.5001V7.50012C11.0002 7.22412 11.2242 7.00012 11.5002 7.00012H12.5002C12.7762 7.00012 13.0002 7.22412 13.0002 7.50012V16.5001ZM10.0002 8.50012C10.0002 8.77612 9.77621 9.00012 9.50021 9.00012H6.00021V15.0001H8.00021V12.5001C8.00021 12.2241 8.22421 12.0001 8.50021 12.0001H9.50021C9.77621 12.0001 10.0002 12.2241 10.0002 12.5001V16.5001C10.0002 16.7761 9.77621 17.0001 9.50021 17.0001H6.00021C4.89621 17.0001 4.00021 16.1041 4.00021 15.0001V9.00012C4.00021 7.89612 4.89621 7.00012 6.00021 7.00012H9.50021C9.77621 7.00012 10.0002 7.22412 10.0002 7.50012V8.50012ZM20.0002 5.00012H4.00021C2.89621 5.00012 2.00021 5.89612 2.00021 7.00012V17.0001C2.00021 18.1041 2.89621 19.0001 4.00021 19.0001H20.0002C21.1042 19.0001 22.0002 18.1041 22.0002 17.0001V7.00012C22.0002 5.89612 21.1042 5.00012 20.0002 5.00012Z" fill="#313234"/>
</svg>

<svg xmlns="http://www.w3.org/2000/svg" width="24" height="24" fill="none" viewBox="0 0 24 24"><path fill="#313234" fill-rule="evenodd" d="M20 8.5a.5.5 0 0 1-.5.5H16v2h2.5a.5.5 0 0 1 .5.5v1a.5.5 0 0 1-.5.5H16v3.5a.5.5 0 0 1-.5.5h-1a.5.5 0 0 1-.5-.5v-9a.5.5 0 0 1 .5-.5h5a.5.5 0 0 1 .5.5zm-7 8a.5.5 0 0 1-.5.5h-1a.5.5 0 0 1-.5-.5v-9a.5.5 0 0 1 .5-.5h1a.5.5 0 0 1 .5.5zm-3-8a.5.5 0 0 1-.5.5H6v6h2v-2.5a.5.5 0 0 1 .5-.5h1a.5.5 0 0 1 .5.5v4a.5.5 0 0 1-.5.5H6a2 2 0 0 1-2-2V9a2 2 0 0 1 2-2h3.5a.5.5 0 0 1 .5.5zM20 5H4a2 2 0 0 0-2 2v10a2 2 0 0 0 2 2h16a2 2 0 0 0 2-2V7a2 2 0 0 0-2-2" clip-rule="evenodd"/></svg>
